icons/kotlin/kotlin-plain-wordmark.svg

<svg xmlns="http://www.w3.org/2000/svg" viewBox="0 0 128 128"><g fill="#7F6CB1"><path d="M0 42.6h20.2L0 62.5zM0 85.4l42.8-42.8H21.6L0 63.9zM42.8 85.4L21.6 65.2 1.4 85.4zM50 75.2V52.4h5.1v9.7l9.3-9.7h5.8l-9.3 9.7 9.3 13.1h-5.8l-6.8-9.5-2.5 2.5v7z"/><path d="M77.5 57.8c-5.1 0-9.2 3.9-9.2 8.7 0 4.8 4.1 8.7 9.2 8.7s9.2-3.9 9.2-8.7c0-4.8-4.1-8.7-9.2-8.7zm0 13.6c-2.7 0-4.9-2.2-4.9-4.9s2.2-4.9 4.9-4.9 4.9 2.2 4.9 4.9-2.2 4.9-4.9 4.9z"/><path d="M87.9 53.4H93v4.5h4v4.2h-4v8.2s1.5 2.1 4 0v4.5s-4 2-7.5 0c0 0-1.6-1.6-1.6-3.5v-9.2h-2v-4.4l2 .1v-4.4zM98.5 51.4h4.9v23.7h-4.9zM105.2 51.4h5v4.2h-5zM105.2 57.9h5v17.3h-5zM111.9 57.9h5.1v2.7s4.7-7.2 10.4 0l.5 1.5v13.1h-5V64.6s-2.8-5.3-5.9 0v10.6h-5.1V57.9z"/></g></svg>

<svg xmlns="http://www.w3.org/2000/svg" viewBox="0 0 128 128"><g><path fill="#7F6CB1" d="M 0,42.6 20.2,42.6 0,62.5  z"/><path fill="#7F6CB1" d="M 0,85.4 42.8,42.6 21.6,42.6 0,63.9  z"/><path fill="#7F6CB1" d="M 42.8,85.4 21.6,65.2 1.4,85.4  z"/><path fill="#7F6CB1" d="M 50,75.2 50,52.4 55.1,52.4 55.1,62.1 64.4,52.4 70.2,52.4 60.9,62.1 70.2,75.2 64.4,75.2 57.6,65.7    55.1,68.2 55.1,75.2  z"/><path fill="#7F6CB1" d="M77.5,57.8c-5.1,0-9.2,3.9-9.2,8.7c0,4.8,4.1,8.7,9.2,8.7c5.1,0,9.2-3.9,9.2-8.7   C86.7,61.7,82.6,57.8,77.5,57.8z M77.5,71.4c-2.7,0-4.9-2.2-4.9-4.9c0-2.7,2.2-4.9,4.9-4.9s4.9,2.2,4.9,4.9   C82.4,69.2,80.2,71.4,77.5,71.4z"/><path fill="#7F6CB1" d="M87.9,53.4H93v4.5h4v4.2h-4v8.2c0,0,1.5,2.1,4,0v4.5c0,0-4,2-7.5,0c0,0-1.6-1.6-1.6-3.5c0-1.8,0-9.2,0-9.2h-2   v-4.4l2,0.1V53.4z"/><rect x="98.5" y="51.4" fill="#7F6CB1" width="4.9" height="23.7"/><rect x="105.2" y="51.4" fill="#7F6CB1" width="5" height="4.2"/><rect x="105.2" y="57.9" fill="#7F6CB1" width="5" height="17.3"/><path fill="#7F6CB1" d="M111.9,57.9h5.1v2.7c0,0,4.7-7.2,10.4,0l0.5,1.5v13.1h-5V64.6c0,0-2.8-5.3-5.9,0v10.6h-5.1V57.9z"/></g></svg>
